assets/1. 1-F/Flatbread/Color/Flatbread-color.svg

<svg width="100%" height="100%" viewBox="0 0 32 32" fill="none" xmlns="http://www.w3.org/2000/svg">
<path d="M30 16C30 24.9375 23.732 30 16 30C7.03125 30 2 23.732 2 16C2 7.0625 8.26801 2 16 2C23.732 2 30 6.875 30 16Z" fill="#FFD1B1"/>
<path d="M30 16C30 24.9375 23.732 30 16 30C7.03125 30 2 23.732 2 16C2 7.0625 8.26801 2 16 2C23.732 2 30 6.875 30 16Z" fill="url(#paint0_radial_18_31065)"/>
<path d="M30 16C30 24.9375 23.732 30 16 30C7.03125 30 2 23.732 2 16C2 7.0625 8.26801 2 16 2C23.732 2 30 6.875 30 16Z" fill="url(#paint1_radial_18_31065)"/>
<path d="M30 16C30 24.9375 23.732 30 16 30C7.03125 30 2 23.732 2 16C2 7.0625 8.26801 2 16 2C23.732 2 30 6.875 30 16Z" fill="url(#paint2_radial_18_31065)"/>
<path d="M30 16C30 24.9375 23.732 30 16 30C7.03125 30 2 23.732 2 16C2 7.0625 8.26801 2 16 2C23.732 2 30 6.875 30 16Z" fill="url(#paint3_radial_18_31065)"/>
<path d="M30 16C30 24.9375 23.732 30 16 30C7.03125 30 2 23.732 2 16C2 7.0625 8.26801 2 16 2C23.732 2 30 6.875 30 16Z" fill="url(#paint4_radial_18_31065)"/>
<g filter="url(#filter0_f_18_31065)">
<path d="M6.12497 16.6876C5.9375 17.1563 6.2969 17.7032 6.5469 17.9532C6.8594 18.2657 7.67188 18.3594 7.96875 18.0626C8.09375 17.9376 14.4583 11.4792 17.8125 8.31255C18.3246 7.82907 18.4062 6.5782 18 6.17195C17.724 5.84382 16.75 5.51875 16.25 6.03125" stroke="url(#paint5_linear_18_31065)"/>
</g>
<g filter="url(#filter1_f_18_31065)">
<path d="M14.0522 24.9235C13.8647 25.3923 14.2241 25.9391 14.4741 26.1891C14.7866 26.5016 15.5991 26.5954 15.8959 26.2985C16.0209 26.1735 22.3855 19.7152 25.7397 16.5485C26.2518 16.065 26.3334 14.8142 25.9272 14.4079C25.6511 14.0798 24.6772 13.7547 24.1772 14.2672" stroke="url(#paint6_linear_18_31065)"/>
</g>
<g filter="url(#filter2_f_18_31065)">
<path d="M8.29684 22.5623C8.10937 23.0311 8.46878 23.5779 8.71878 23.8279C9.03128 24.1404 9.84375 24.2342 10.1406 23.9373C10.2656 23.8123 21.0208 13.1665 24.375 9.99982C24.8871 9.51634 24.9688 8.26546 24.5625 7.85921C24.2865 7.53109 23.3125 7.20602 22.8125 7.71852" stroke="url(#paint7_linear_18_31065)"/>
</g>
<g filter="url(#filter3_f_18_31065)">
<path d="M8.10001 23.8999C7.81001 23.6099 7.81001 23.1299 8.10001 22.8399L22.84 8.09995C23.13 7.80995 23.61 7.80995 23.9 8.09995C24.19 8.38995 24.19 8.86995 23.9 9.15995L9.16001 23.8999C8.87001 24.1899 8.39001 24.1899 8.10001 23.8999Z" fill="#EAA27F"/>
<path d="M8.06465 22.8046C7.75513 23.1141 7.75513 23.6258 8.06465 23.9353C8.37418 24.2448 8.88584 24.2448 9.19536 23.9353L23.9354 9.1953C24.2449 8.88577 24.2449 8.37412 23.9354 8.06459C23.6258 7.75506 23.1142 7.75506 22.8047 8.06459L8.06465 22.8046Z" stroke="#FFBC9C" stroke-width="0.1"/>
</g>
<g filter="url(#filter4_f_18_31065)">
<path d="M6.87001 17.25L6.69001 17.07C6.45001 16.83 6.45001 16.43 6.69001 16.19L16.2 6.68C16.44 6.44 16.84 6.44 17.08 6.68L17.26 6.86C17.5 7.1 17.5 7.5 17.26 7.74L7.75001 17.25C7.50001 17.5 7.11001 17.5 6.87001 17.25Z" fill="#EAA27F"/>
<path d="M6.65465 17.1054L6.83394 17.2846C6.83406 17.2848 6.83418 17.2849 6.8343 17.285C7.0944 17.5555 7.51637 17.5543 7.78536 17.2854L17.2954 7.77536C17.5549 7.51583 17.5549 7.08417 17.2954 6.82464L17.1154 6.64464C16.8558 6.38512 16.4242 6.38512 16.1647 6.64464L6.65465 16.1546C6.39513 16.4142 6.39513 16.8458 6.65465 17.1054Z" stroke="#FFBC9C" stroke-width="0.1"/>
</g>
<g filter="url(#filter5_f_18_31065)">
<path d="M14.93 25.3199L14.75 25.1399C14.51 24.8999 14.51 24.4999 14.75 24.2599L24.26 14.7499C24.5 14.5099 24.9 14.5099 25.14 14.7499L25.32 14.9299C25.56 15.1699 25.56 15.5699 25.32 15.8099L15.81 25.3199C15.56 25.5599 15.17 25.5599 14.93 25.3199Z" fill="#EAA27F"/>
<path d="M15.8446 25.356L15.8446 25.356L15.8454 25.3553L25.3554 15.8453C25.6149 15.5858 25.6149 15.1541 25.3554 14.8946L25.1754 14.7146C24.9158 14.4551 24.4842 14.4551 24.2247 14.7146L14.7147 24.2246C14.4551 24.4841 14.4551 24.9158 14.7147 25.1753L14.8947 25.3553C15.1546 25.6152 15.5757 25.6142 15.8446 25.356Z" stroke="#FFBC9C" stroke-width="0.1"/>
</g>
<defs>
<filter id="filter0_f_18_31065" x="4.57269" y="4.2644" width="15.1853" height="15.478" filterUnits="userSpaceOnUse" color-interpolation-filters="sRGB">
<feFlood flood-opacity="0" result="BackgroundImageFix"/>
<feBlend mode="normal" in="SourceGraphic" in2="BackgroundImageFix" result="shape"/>
<feGaussianBlur stdDeviation="0.5" result="effect1_foregroundBlur_18_31065"/>
</filter>
<filter id="filter1_f_18_31065" x="12.4999" y="12.5004" width="15.1853" height="15.478" filterUnits="userSpaceOnUse" color-interpolation-filters="sRGB">
<feFlood flood-opacity="0" result="BackgroundImageFix"/>
<feBlend mode="normal" in="SourceGraphic" in2="BackgroundImageFix" result="shape"/>
<feGaussianBlur stdDeviation="0.5" result="effect1_foregroundBlur_18_31065"/>
</filter>
<filter id="filter2_f_18_31065" x="6.74457" y="5.95166" width="19.5759" height="19.6655" filterUnits="userSpaceOnUse" color-interpolation-filters="sRGB">
<feFlood flood-opacity="0" result="BackgroundImageFix"/>
<feBlend mode="normal" in="SourceGraphic" in2="BackgroundImageFix" result="shape"/>
<feGaussianBlur stdDeviation="0.5" result="effect1_foregroundBlur_18_31065"/>
</filter>
<filter id="filter3_f_18_31065" x="6.78253" y="6.78247" width="18.435" height="18.4349" filterUnits="userSpaceOnUse" color-interpolation-filters="sRGB">
<feFlood flood-opacity="0" result="BackgroundImageFix"/>
<feBlend mode="normal" in="SourceGraphic" in2="BackgroundImageFix" result="shape"/>
<feGaussianBlur stdDeviation="0.5" result="effect1_foregroundBlur_18_31065"/>
</filter>
<filter id="filter4_f_18_31065" x="5.41003" y="5.40002" width="13.13" height="13.1375" filterUnits="userSpaceOnUse" color-interpolation-filters="sRGB">
<feFlood flood-opacity="0" result="BackgroundImageFix"/>
<feBlend mode="normal" in="SourceGraphic" in2="BackgroundImageFix" result="shape"/>
<feGaussianBlur stdDeviation="0.5" result="effect1_foregroundBlur_18_31065"/>
</filter>
<filter id="filter5_f_18_31065" x="13.47" y="13.47" width="13.13" height="13.13" filterUnits="userSpaceOnUse" color-interpolation-filters="sRGB">
<feFlood flood-opacity="0" result="BackgroundImageFix"/>
<feBlend mode="normal" in="SourceGraphic" in2="BackgroundImageFix" result="shape"/>
<feGaussianBlur stdDeviation="0.5" result="effect1_foregroundBlur_18_31065"/>
</filter>
<radialGradient id="paint0_radial_18_31065" cx="0" cy="0" r="1" gradientUnits="userSpaceOnUse" gradientTransform="translate(23.6875 10.3125) rotate(140.932) scale(20.5276)">
<stop stop-color="#FFDBB8"/>
<stop offset="1" stop-color="#F4B28A" stop-opacity="0"/>
</radialGradient>
<radialGradient id="paint1_radial_18_31065" cx="0" cy="0" r="1" gradientUnits="userSpaceOnUse" gradientTransform="translate(19.5 16) rotate(-152.513) scale(20.854)">
<stop stop-color="#F9B68F" stop-opacity="0"/>
<stop offset="0.503072" stop-color="#F9B68F" stop-opacity="0"/>
<stop offset="0.690799" stop-color="#F4B28A"/>
<stop offset="0.807666" stop-color="#C99C7A"/>
</radialGradient>
<radialGradient id="paint2_radial_18_31065" cx="0" cy="0" r="1" gradientUnits="userSpaceOnUse" gradientTransform="translate(16.6875 11.9375) rotate(93.0305) scale(21.2798 22.657)">
<stop offset="0.560181" stop-color="#FEB1B2" stop-opacity="0"/>
<stop offset="0.791432" stop-color="#EF9F9E"/>
<stop offset="0.842333" stop-color="#CC83AE"/>
</radialGradient>
<radialGradient id="paint3_radial_18_31065" cx="0" cy="0" r="1" gradientUnits="userSpaceOnUse" gradientTransform="translate(8.375 20.375) rotate(-31.1746) scale(23.3025 37.3292)">
<stop offset="0.700812" stop-color="#FFE0B9" stop-opacity="0"/>
<stop offset="0.816128" stop-color="#FFDEB9"/>
<stop offset="0.988641" stop-color="#FFF2BD"/>
</radialGradient>
<radialGradient id="paint4_radial_18_31065" cx="0" cy="0" r="1" gradientUnits="userSpaceOnUse" gradientTransform="translate(5.6875 23.3125) rotate(-35.6979) scale(31.169 21.2535)">
<stop offset="0.83625" stop-color="#FFD9A6" stop-opacity="0"/>
<stop offset="0.868726" stop-color="#F6D298"/>
</radialGradient>
<linearGradient id="paint5_linear_18_31065" x1="18.5937" y1="6.40625" x2="13.1503" y2="20.5943" gradientUnits="userSpaceOnUse">
<stop stop-color="#FFC8A3"/>
<stop offset="0.124787" stop-color="#F8B991"/>
<stop offset="0.914298" stop-color="#F5B388"/>
<stop offset="0.976124" stop-color="#FFD0B5"/>
</linearGradient>
<linearGradient id="paint6_linear_18_31065" x1="26.5209" y1="14.6422" x2="21.0774" y2="28.8303" gradientUnits="userSpaceOnUse">
<stop stop-color="#FFC8A3"/>
<stop offset="0.124787" stop-color="#F8B991"/>
<stop offset="0.914298" stop-color="#F5B388"/>
<stop offset="0.976124" stop-color="#FFD0B5"/>
</linearGradient>
<linearGradient id="paint7_linear_18_31065" x1="24.125" y1="8.73413" x2="17.5924" y2="26.81" gradientUnits="userSpaceOnUse">
<stop stop-color="#FFD4AD"/>
<stop offset="0.124787" stop-color="#FEC49B"/>
<stop offset="0.954138" stop-color="#FBB78F"/>
<stop offset="1" stop-color="#FFD0B5"/>
</linearGradient>
</defs>
</svg>

<svg width="100%" height="100%" viewBox="0 0 32 32" xmlns="http://www.w3.org/2000/svg"><path fill="#FFD1B1" d="M30 16c0 8.938-6.268 14-14 14-8.969 0-14-6.268-14-14C2 7.063 8.268 2 16 2s14 4.875 14 14"/><path fill="url(#a)" d="M30 16c0 8.938-6.268 14-14 14-8.969 0-14-6.268-14-14C2 7.063 8.268 2 16 2s14 4.875 14 14"/><path fill="url(#b)" d="M30 16c0 8.938-6.268 14-14 14-8.969 0-14-6.268-14-14C2 7.063 8.268 2 16 2s14 4.875 14 14"/><path fill="url(#c)" d="M30 16c0 8.938-6.268 14-14 14-8.969 0-14-6.268-14-14C2 7.063 8.268 2 16 2s14 4.875 14 14"/><path fill="url(#d)" d="M30 16c0 8.938-6.268 14-14 14-8.969 0-14-6.268-14-14C2 7.063 8.268 2 16 2s14 4.875 14 14"/><path fill="url(#e)" d="M30 16c0 8.938-6.268 14-14 14-8.969 0-14-6.268-14-14C2 7.063 8.268 2 16 2s14 4.875 14 14"/><g filter="url(#f)"><path stroke="url(#g)" d="M6.125 16.688c-.187.468.172 1.015.422 1.265.312.313 1.125.406 1.422.11.125-.125 6.49-6.584 9.843-9.75.513-.484.594-1.735.188-2.141-.276-.328-1.25-.653-1.75-.14"/></g><g filter="url(#h)"><path stroke="url(#i)" d="M14.052 24.924c-.187.468.172 1.015.422 1.265.313.313 1.125.406 1.422.11.125-.125 6.49-6.584 9.844-9.75.512-.484.593-1.735.187-2.141-.276-.328-1.25-.653-1.75-.14"/></g><g filter="url(#j)"><path stroke="url(#k)" d="M8.297 22.562c-.188.47.172 1.016.422 1.266.312.312 1.125.406 1.422.11.125-.126 10.88-10.771 14.234-13.938.512-.484.594-1.735.188-2.14-.276-.329-1.25-.654-1.75-.141"/></g><g filter="url(#l)"><path fill="#EAA27F" d="M8.1 23.9a.754.754 0 0 1 0-1.06L22.84 8.1c.29-.29.77-.29 1.06 0s.29.77 0 1.06L9.16 23.9c-.29.29-.77.29-1.06 0"/><path stroke="#FFBC9C" stroke-width=".1" d="M8.065 22.805a.804.804 0 0 0 0 1.13c.31.31.82.31 1.13 0l14.74-14.74a.805.805 0 0 0 0-1.13.804.804 0 0 0-1.13 0z"/></g><g filter="url(#m)"><path fill="#EAA27F" d="m6.87 17.25-.18-.18a.63.63 0 0 1 0-.88l9.51-9.51c.24-.24.64-.24.88 0l.18.18c.24.24.24.64 0 .88l-9.51 9.51a.61.61 0 0 1-.88 0"/><path stroke="#FFBC9C" stroke-width=".1" d="m6.655 17.105.179.18c.26.27.682.27.951 0l9.51-9.51a.68.68 0 0 0 0-.95l-.18-.18a.68.68 0 0 0-.95 0l-9.51 9.51a.68.68 0 0 0 0 .95Z"/></g><g filter="url(#n)"><path fill="#EAA27F" d="m14.93 25.32-.18-.18a.63.63 0 0 1 0-.88l9.51-9.51c.24-.24.64-.24.88 0l.18.18c.24.24.24.64 0 .88l-9.51 9.51c-.25.24-.64.24-.88 0"/><path stroke="#FFBC9C" stroke-width=".1" d="m15.845 25.356 9.51-9.51a.68.68 0 0 0 0-.951l-.18-.18a.68.68 0 0 0-.95 0l-9.51 9.51a.68.68 0 0 0 0 .95l.18.18c.26.26.68.26.95.001Z"/></g><defs><filter id="f" width="15.185" height="15.478" x="4.573" y="4.264" color-interpolation-filters="sRGB" filterUnits="userSpaceOnUse"><feFlood flood-opacity="0" result="BackgroundImageFix"/><feBlend in="SourceGraphic" in2="BackgroundImageFix" result="shape"/><feGaussianBlur result="effect1_foregroundBlur_18_31065" stdDeviation=".5"/></filter><filter id="h" width="15.185" height="15.478" x="12.5" y="12.5" color-interpolation-filters="sRGB" filterUnits="userSpaceOnUse"><feFlood flood-opacity="0" result="BackgroundImageFix"/><feBlend in="SourceGraphic" in2="BackgroundImageFix" result="shape"/><feGaussianBlur result="effect1_foregroundBlur_18_31065" stdDeviation=".5"/></filter><filter id="j" width="19.576" height="19.666" x="6.745" y="5.952" color-interpolation-filters="sRGB" filterUnits="userSpaceOnUse"><feFlood flood-opacity="0" result="BackgroundImageFix"/><feBlend in="SourceGraphic" in2="BackgroundImageFix" result="shape"/><feGaussianBlur result="effect1_foregroundBlur_18_31065" stdDeviation=".5"/></filter><filter id="l" width="18.435" height="18.435" x="6.783" y="6.782" color-interpolation-filters="sRGB" filterUnits="userSpaceOnUse"><feFlood flood-opacity="0" result="BackgroundImageFix"/><feBlend in="SourceGraphic" in2="BackgroundImageFix" result="shape"/><feGaussianBlur result="effect1_foregroundBlur_18_31065" stdDeviation=".5"/></filter><filter id="m" width="13.13" height="13.137" x="5.41" y="5.4" color-interpolation-filters="sRGB" filterUnits="userSpaceOnUse"><feFlood flood-opacity="0" result="BackgroundImageFix"/><feBlend in="SourceGraphic" in2="BackgroundImageFix" result="shape"/><feGaussianBlur result="effect1_foregroundBlur_18_31065" stdDeviation=".5"/></filter><filter id="n" width="13.13" height="13.13" x="13.47" y="13.47" color-interpolation-filters="sRGB" filterUnits="userSpaceOnUse"><feFlood flood-opacity="0" result="BackgroundImageFix"/><feBlend in="SourceGraphic" in2="BackgroundImageFix" result="shape"/><feGaussianBlur result="effect1_foregroundBlur_18_31065" stdDeviation=".5"/></filter><radialGradient id="a" cx="0" cy="0" r="1" gradientTransform="rotate(140.932 10.014 9.358)scale(20.5276)" gradientUnits="userSpaceOnUse"><stop stop-color="#FFDBB8"/><stop offset="1" stop-color="#F4B28A" stop-opacity="0"/></radialGradient><radialGradient id="b" cx="0" cy="0" r="1" gradientTransform="rotate(-152.513 11.707 5.615)scale(20.854)" gradientUnits="userSpaceOnUse"><stop stop-color="#F9B68F" stop-opacity="0"/><stop offset=".503" stop-color="#F9B68F" stop-opacity="0"/><stop offset=".691" stop-color="#F4B28A"/><stop offset=".808" stop-color="#C99C7A"/></radialGradient><radialGradient id="c" cx="0" cy="0" r="1" gradientTransform="rotate(93.031 2.683 13.882)scale(21.2798 22.657)" gradientUnits="userSpaceOnUse"><stop offset=".56" stop-color="#FEB1B2" stop-opacity="0"/><stop offset=".791" stop-color="#EF9F9E"/><stop offset=".842" stop-color="#CC83AE"/></radialGradient><radialGradient id="d" cx="0" cy="0" r="1" gradientTransform="matrix(19.93748 -12.06249 19.32338 31.93863 8.375 20.375)" gradientUnits="userSpaceOnUse"><stop offset=".701" stop-color="#FFE0B9" stop-opacity="0"/><stop offset=".816" stop-color="#FFDEB9"/><stop offset=".989" stop-color="#FFF2BD"/></radialGradient><radialGradient id="e" cx="0" cy="0" r="1" gradientTransform="rotate(-35.698 39.042 2.825)scale(31.169 21.2535)" gradientUnits="userSpaceOnUse"><stop offset=".836" stop-color="#FFD9A6" stop-opacity="0"/><stop offset=".869" stop-color="#F6D298"/></radialGradient><linearGradient id="g" x1="18.594" x2="13.15" y1="6.406" y2="20.594" gradientUnits="userSpaceOnUse"><stop stop-color="#FFC8A3"/><stop offset=".125" stop-color="#F8B991"/><stop offset=".914" stop-color="#F5B388"/><stop offset=".976" stop-color="#FFD0B5"/></linearGradient><linearGradient id="i" x1="26.521" x2="21.077" y1="14.642" y2="28.83" gradientUnits="userSpaceOnUse"><stop stop-color="#FFC8A3"/><stop offset=".125" stop-color="#F8B991"/><stop offset=".914" stop-color="#F5B388"/><stop offset=".976" stop-color="#FFD0B5"/></linearGradient><linearGradient id="k" x1="24.125" x2="17.592" y1="8.734" y2="26.81" gradientUnits="userSpaceOnUse"><stop stop-color="#FFD4AD"/><stop offset=".125" stop-color="#FEC49B"/><stop offset=".954" stop-color="#FBB78F"/><stop offset="1" stop-color="#FFD0B5"/></linearGradient></defs></svg>
